packages/core/src/svgs/tokens/mono/SAMA.svg

<svg width="24" height="24" viewBox="0 0 24 24" fill="none" xmlns="http://www.w3.org/2000/svg">
<path d="M11.9985 2.00146C10.4863 2.00146 8.1241 2.76384 7.14923 3.46999V3.17629C6.54308 3.66996 5.27451 4.76355 5.02455 5.23849V4.65107C4.52463 5.13849 3.51227 6.46955 3.51227 7.88184L3.21231 7.58815C2.86042 8.04353 2.64488 8.58938 2.59068 9.16233C2.53649 9.73523 2.64586 10.3119 2.9061 10.8252L2.29995 10.2377C2.09998 11.3126 1.88127 13.706 2.60615 14.6497L2.29995 14.3496C2.19997 14.6497 2.11873 15.3496 2.60615 15.8245L2 15.5307C2.40619 16.6056 3.45603 18.824 4.42463 19.0552H3.81848C4.11843 19.3489 4.84957 19.9426 5.33075 19.9426L5.0308 20.2363C6.24313 20.8236 9.39271 21.9986 12.2985 21.9986C15.2106 21.9986 17.9602 20.8236 18.9663 20.2363H18.6663C19.0663 20.0363 19.9349 19.5301 20.1786 19.0552H19.5724C20.1786 18.6678 21.5097 17.4116 21.9971 15.5307L21.3908 15.8245C21.4909 15.7245 21.6971 15.3496 21.6971 14.6497L21.0909 14.9433C21.7112 14.2031 22.0342 13.2588 21.9971 12.2936C21.9971 10.8815 21.7971 10.3315 21.6971 10.2316L21.3908 10.8252C21.4909 10.0378 21.516 8.29429 20.7847 7.58815V8.17555C20.5848 7.19444 19.9349 5.1135 18.9726 4.65107V4.94478C18.8663 4.55109 18.2976 3.65122 16.8478 3.17629V3.46999C15.9354 2.98256 13.6982 2.00146 11.9985 2.00146ZM5.74945 14.1872C5.85568 14.081 6.18689 13.8747 6.6868 13.8747C7.31171 13.8747 8.87398 14.1872 8.87398 15.4371C8.87398 15.7494 8.68651 16.3743 7.93663 16.3743C6.99927 16.3743 6.99926 15.7494 6.99926 15.4371C6.99926 15.2807 7.0805 15.1246 7.15549 14.9683C7.23673 14.8121 7.31171 14.6558 7.31171 14.4996C7.31171 14.1872 6.37436 13.906 5.74945 14.1872ZM11.9985 20.7487C11.1674 20.1988 9.49886 18.9427 9.49886 18.2865C9.49886 17.4679 10.8863 16.3743 11.9985 16.3743C13.1109 16.3743 14.4982 17.4679 14.4982 18.2865C14.4982 18.9115 12.9171 20.0739 12.1235 20.6612L11.9985 20.7487ZM17.9351 13.8747C18.4351 13.8747 18.7662 14.081 18.8725 14.1872C17.9539 13.8747 17.3103 14.1872 17.3103 14.4996C17.3103 14.6558 17.3915 14.8121 17.4665 14.9683C17.5477 15.1246 17.6228 15.2807 17.6228 15.4371C17.6228 15.7494 17.6228 16.3743 16.6854 16.3743C15.9354 16.3743 15.7479 15.7494 15.7479 15.4371C15.7479 14.1872 17.3103 13.8747 17.9351 13.8747Z" fill="white"/>
</svg>

<svg xmlns="http://www.w3.org/2000/svg" width="24" height="24" fill="none" viewBox="0 0 24 24">
    <path fill="#fff" d="M11.999 2.001c-1.513 0-3.875.763-4.85 1.469v-.294c-.606.494-1.874 1.588-2.124 2.062v-.587c-.5.487-1.513 1.819-1.513 3.23l-.3-.293a3.04 3.04 0 0 0-.306 3.237l-.606-.587c-.2 1.075-.419 3.468.306 4.412l-.306-.3c-.1.3-.181 1 .306 1.475L2 15.53c.406 1.075 1.456 3.293 2.425 3.524h-.607c.3.294 1.032.888 1.513.888l-.3.293C6.243 20.824 9.393 22 12.299 22c2.912 0 5.661-1.175 6.667-1.763h-.3c.4-.2 1.269-.706 1.513-1.18h-.607c.607-.388 1.938-1.644 2.425-3.525l-.606.293c.1-.1.306-.474.306-1.174l-.606.293c.62-.74.943-1.684.906-2.65 0-1.411-.2-1.961-.3-2.061l-.306.593c.1-.787.125-2.53-.606-3.237v.588c-.2-.982-.85-3.062-1.812-3.525v.294c-.107-.394-.675-1.294-2.125-1.769v.294c-.913-.487-3.15-1.469-4.85-1.469m-6.25 12.186c.107-.106.438-.312.938-.312.625 0 2.187.312 2.187 1.562 0 .312-.187.937-.937.937-.938 0-.938-.625-.938-.937 0-.156.082-.312.156-.469.082-.156.157-.312.157-.468 0-.313-.938-.594-1.563-.313M12 20.75c-.832-.55-2.5-1.806-2.5-2.462 0-.82 1.387-1.913 2.5-1.913s2.5 1.094 2.5 1.913c0 .625-1.582 1.787-2.376 2.374zm5.936-6.874c.5 0 .831.206.938.312-.92-.312-1.563 0-1.563.313 0 .156.082.312.157.468.08.157.156.313.156.47 0 .311 0 .936-.938.936-.75 0-.937-.625-.937-.937 0-1.25 1.562-1.562 2.187-1.562"/>
</svg>
